X:6
T:De oogst gaat in
T:Oogstlied
C:Traditioneel
O:Vlaanderen
Z:Bert Van Vreckem <http://flanders.blackmill.net/music/> 2005-09-20
S:Opgetekend door Herman Dewit
N:De gewone tekst is voor de voorzanger, tekst in hoofdletters voor het koor.
M:6/8
L:1/8
K:F
[Q: "Largo"] G|A2G F2G|A2G F2G|A2G F2G|A2G +fermata+F3||
w:Droog uit, droog in, de oogst gaat in. DROOG UIT, DROOG IN, DE OOGST GAAT IN.
[Q: "Allegro"]C|F2F F2F|G G G F3|+fermata+F3 z2C|F2F F2F|G2G F3|+fermata+F3||
w:En is den boer zijn ko-ren nu in? JA! En is den boer zijn hooi nu in? JA!
A A B|c c B A2 G|A2F-+fermata+F3|+fermata+F3 A A B|c2 B A2 G|A2F-+fermata+F3|+fermata+F3||
w:Nu gaan we lek-ke-re rijst-pap e-ten!_ JA! Met brui-ne sui-ker niet ge-me-ten!_ JA!
[Q: "Presto"]A A B|c c B A2 G|A2F A A B|c2 B A2 G|F2F z2||
w:NU GAAN WE LEK-KE-RE RIJST-PAP E-TEN! MET BRUI-NE SUI-KER NIET GE-ME-TEN!
[K:Bb][M:2/4][Q: "Largo"]F|F F GA|B2 d c|B2 AG|GF F2|z2 d2|c4|BG +fermata+F2|
w:We zien er on-ze schen-ker van ver-re_ ko-_men. VI-VA! VI-_VA!
F F G A|B2 F2|FG FE|ED D2||
w:En hij is ge-tooid met scho-_ne_ bloe-_men
[Q: "Presto"]D E|F> G F E|D z D E|F> G F E|D2 B2|
w:EN DAT STAAT IN ON-ZE ZIN, EN 'T~IS HEM DIE IK BE-MIN. MAAR
F2 B2|c2 =B2| c =B c d|c4|[Q: "Rall."]d2 d d|G2 c2|BA GA|B2||
w:ZIE DAAR IS NOG O-LIE, O-LIE IN. MAAR ZIE, DAAR IS NOG O-_LIE_ IN.
[Q: "Largo"] +segno+D E|F3 G|F E D C|(B,3 D)|F2 D E|
w:(meisjes)~~EN HOE ZOU'N WE RE-PEN DAT WE VLAS_ HAAN. EN HOE
F3 G|F E D C|(B,3 D)|F4||
w:ZOU'N WE DRIN-KEN DAT WE'N GLAS_ HAAN.
|:[Q: "Presto"]F> F F F|G> E E2|G G G G|F> E D2|
w:(tutti)~~VI-VA DE GE-NE-VE-RE EN HOE MEER HOE LIE-VE-RE,
F F F E|D D D D|E E F F|B,2 z2+segno+:|
w:DE GE-NE-VER IN DE SNAP IS VEEL BE-TER ALS PAP!

%%scale .65
